X:1
T:Saule breathing
T:Christopher Tye
T:Source : Acts of the Apostles---Chapter IX---1553. Editor : André Vierendeels (17/01/17).
T:Saule breathing
T:©
T:©
T:©
C:Christopher Tye
Z:©
%%score [ 1 [ 2 3 ] 4 ]
L:1/8
Q:1/4=120
M:4/4
K:F
V:1 treble nm="Soprano" snm="S"
V:2 treble-8 nm="Tenor 1" snm="T 1"
V:3 treble-8 nm="Tenor 2" snm="T 2"
V:4 bass nm="Bass" snm="B"
V:1
 z4 z2 F2 | F3 F G2 G2 | A2 A2 F2 F2 | G2 B2 B2 A2 | B4 z2 G2 | C3 C DE F2 | F2 E2 F2 A2 | %7
w: Saule|brea- thing out threat-|nyngs ab- rode, the|fayth- full to re-|syst, a-|gaynst the lect of _|God the Lorde, went|
 G2 F2 F2 E2 | F4 z2 D2 | GA B2 A2 G2- | GA ^F2 G2 D2 | E2 E2 FG- A2 | D4 z2 E2 | F2 A2 G2 F2 | %14
w: un- to the hye|priest, and|er- nest- lye dyd hym|_ de- * syre, his|let- ters to graunt _|out, un-|to Da- mas- co|
 z2 F2 G2 B2 | A2 G3 F F2- | F2 E2 F4- | F8 |] %18
w: to en- quyre,|the Sy- na- gogs|_ a- bout.|_|
V:2
 z2 c2 c3 c | d2 d2 e2 e2 | c2 c2 d2 f2 | f2 e2 f4 | z2 d2 G3 G | AB c2 c2 B2 | c2 e2 d2 c2 | %7
w: Saule brea- thing|out threat- nyngs ab-|rode, the fayth- full|to re- syst,|a- gaynst the|lect of _ God the|Lorde, went un- to|
 c2 =B2 c4 | z2 A2 de f2 | e2 d3 e ^c2 | d2 A2 =B2 B2 | cd- e2 A4 | z2 =B2 c2 e2 | d2 c2 z2 c2 | %14
w: the hye priest,|and er- nest- lye|dyd hym de- *|syre, his let- ters|to graunt _ out|un- to Da-|mas- co to|
 d2 f2 e2 d2- | dc c4 B2 | c3 B A4- | A8 |] %18
w: en- quyre, the Sy-|* na _ gogs|a- * bout.|_|
V:3
 z2 A2 A3 A | A2 F2 c2 c2 | A4 z2 c2 | B3 c d_e c2 | B4 z4 | z2 c2 F3 F | GAGG F2 F2 | %7
w: Saule brea- thing|out threat- nyngs ab-|rode, the|fayth full to _ re-|syst,|a- gaynst de|lect of God the Lorde, went|
 E2 F2 A2 G2 | F2 F2 F3 D | E2 F4 GA- | B2 A2 G4 | z2 c2 F2 F2 | G2 G2 E4 | z2 F2 E2 A2 | %14
w: un- to the hye|priest, and er- nest-|* lye dyd hym|_ de- syre,|his let- ters|to graunt out,|un- to Da-|
 G2 F2 z2 F2- | FFGA BAGF | G2 G2 F4- | F8 |] %18
w: mas- co to|_ en- quyre the Sy- * * na-|gogs a- bout.|_|
V:4
 F,4 F,3 F, | D,2 D,2 C,2 C,2 | F,2 F,2 B,2 A,2 | G,2 G,2 F,2 F,2 | B,,3 B,, C,D, _E,2 | %5
w: |||||
 F,3 E, D,C, D,2 | C,4 z2 F,,2 | C,2 D,2 C,2 C,2 | F,,2 F,,2 B,,3 B,, | C,2 D,E, F,2 E,2 | %10
w: |||||
 D,4 z2 G,2 | C,2 C,2 D,2 D,2 | =B,,2 G,,2 A,,2 G,,2 | F,,2 F,,2 z2 A,,2 | B,,2 D,2 C,2 B,,2 | %15
w: * his|let- ters to graunt|out, un- to Da-|mas- co to|en- quyre, the Sy-|
 F,2 E,2 D,4 | C,4 F,,4- | F,,8 |] %18
w: * na gogs|a- bout.|_|

